public/avatar/shoe/137.svg

<svg xmlns:xlink="http://www.w3.org/1999/xlink" height="38.3" width="36.05" xmlns="http://www.w3.org/2000/svg"><use height="18.7" transform="translate(11.7 11.3)" width="20.7" xlink:href="#a"/><defs><g id="a" fill-rule="evenodd"><path d="M6.75.85Q4.6-.75-3.3 3.3q-4 2.05-7.45 4.4l-.9 1.3q-.8 1.65-.2 2.9.05 1.25 1.65 1.65 4.2 2.4 10 1.2 4-.95 5.65-3.7.45-1.7 1.65-2.45 3.15-5.1-.35-7.75" fill="#141423" transform="translate(12.1 3.55)"/><path d="M6.75 1.55Q5.25.35-3.1 4.45q-4.2 2.05-8 4.3l-.25 1.75q0 1.85.95 2.6 5.15 2.55 10.45.85 3.45-1.05 4.75-3.3.4-1.5 1.65-2.65 2.85-4.4.3-6.45" fill="#52a0ff" transform="translate(12.1 3.55)"/><path d="m7.6 4.2.05-1.15q-.15 1.9-2.35 3.8-.7.5-1.1 2.05l-1.7 2.25q-4.25 2.55-9.95 1.4-4.05-1-3.55-3.7-1.4 3.6 3.7 4.25 2.65.65 5.9.05l2.7-.7q1.85-.85 2.8-2.25l1.65-3.1Q7.3 5.75 7.6 4.2" fill="#004aa3" transform="translate(12.1 3.55)"/><path d="M6.75 1.55Q5.3.5-2.8 3.8l-7.65 3.4v.05q-2.6 4.2 2.95 5.25 5.55 1 8.75-.75 1.8-.5 3-2.8.3-1.6 1.05-2.05Q6.35 6.2 7 5.05q1.45-2.15-.25-3.5" fill="#7dd1ff" transform="translate(12.1 3.55)"/><path d="m.3-3.55-2.6.3Q-5.05-2.5-6.2-.3l-1.25 3.05-2.85 4q-.95 1.6-.6 2.5 1.1 2.15 4.4 2 2.1 1.65 5.3.4 3.75-.2 5.6-4.9L5.9 5.4q2.3-2.8-.3-7.2l-.9-.75q-1.5-.8-4.4-1" transform="translate(12.1 3.55)"/><path d="M-2.85-2.25q-1.95.7-3.05 2.9l-.6 1.9q-.35 1.2-1.2 2.1L-9.8 7.4q-.95 3.1 1.75 3.05 1.3.25 2.2-.55.6 2.65 5.9.55 2.8-1.25 3.45-3.8 2.3-1.8 2.85-4.1 0-1.6-.95-2.95-1.9-2.85-6.5-2.1l-1.75.25" fill="#c98036" transform="translate(12.1 3.55)"/><path d="m-6 10.35.5.35q-.75-.65-.4-3.55-1.2 1.3-.1 3.2" transform="translate(12.1 3.55)"/><path d="M-6.25 9.35-6 7.5l-.6-.45q-.7.35.35 2.3" transform="translate(12.1 3.55)"/><path d="M5.15-.7q-.8-1.2-2.65-1.75l-1.75-.3q-3.4-.1-5.05 1.25-2.25 2 9.45.8m.7 1.55L4.65 3.2Q3.3 5.55 2.5 5.75l-.3.15L.15 8.15q-.4 1.2-.1.2-2.6 1.5-4.25.35-.45 2 .5 2.15 4.8.8 7.2-4.35L6 3.25q.6-1.5-.15-2.4" fill="#965112" transform="translate(12.1 3.55)"/><path d="m1.7 8 2.85-3.85-.95.6Q.35 6.2.15 8.15l-.75 1h.7L1.7 8m-8.45.15q-1.85 1.9-3.25 1.2.7 2 3.8.75l-.55-1.95" fill="#965112" transform="translate(12.1 3.55)"/><path d="M2.45 10.1q.95-.45 1.45-1.4l.2-.9Q1.05 4.15-2.4 4.1q-1.75 0-2.85.65-1.5-.9-2.95-.85l-1.1.2q-1.2.15-.75 2.25.9-.5 2.55.45.8.45 1.5 1 1.3-1.75 5 .05l3.45 2.25" fill="#004aa3" transform="translate(12.1 3.55)"/><path d="M2.45 9.8q.9-.45 1.15-1.2l.1-.75q-2.9-3.2-6.25-3.3-1.65-.05-2.8.55-.6-.65-2.1-.75h-1.4q-.75.4-.95 1.65.85-.4 2.45.35l1.4.9q2.15-1.55 5.45.3 1.7 1 2.95 2.25" fill="#7dd1ff" transform="translate(12.1 3.55)"/><path d="M-10.05 6.15q-.1.5.25.5l.6-.45-.85-.05" fill="#004aa3" transform="translate(12.1 3.55)"/><path d="m3.65 8-1.5-1.65-4.7.15 5 3.05q.65-.1 1-.85l.2-.7m-9-2.95q-1.4 1.4-1.75.85l-1.6.05 1.1.4 1.65.85.6-2.15" fill="#52a0ff" transform="translate(12.1 3.55)"/><path d="m-6.5 5.1-.5-.35q-.65-.35-1.55-.25l-.85.55-.1.3q.25-.3.8-.5.95-.4 2.2.25m1.45.45Q-3.8 5-2.35 5.1l1.25.2-.4-.55q-1.65-.35-3.55.8" fill="#fff" transform="translate(12.1 3.55)"/></g></defs></svg>

<?xml version="1.0" encoding="UTF-8" standalone="no"?>
<svg xmlns:xlink="http://www.w3.org/1999/xlink" height="38.3px" width="36.05px" xmlns="http://www.w3.org/2000/svg">
  <g transform="matrix(1.0, 0.0, 0.0, 1.0, 23.8, 14.85)">
    <use height="18.7" transform="matrix(1.0, 0.0, 0.0, 1.0, -12.1, -3.55)" width="20.7" xlink:href="#shape0"/>
  </g>
  <defs>
    <g id="shape0" transform="matrix(1.0, 0.0, 0.0, 1.0, 12.1, 3.55)">
      <path d="M6.75 0.85 Q4.6 -0.75 -3.3 3.3 -7.3 5.35 -10.75 7.7 L-11.65 9.0 Q-12.45 10.65 -11.85 11.9 -11.8 13.15 -10.2 13.55 -6.0 15.95 -0.2 14.75 3.8 13.8 5.45 11.05 5.9 9.35 7.1 8.6 10.25 3.5 6.75 0.85" fill="#141423" fill-rule="evenodd" stroke="none"/>
      <path d="M6.75 1.55 Q5.25 0.35 -3.1 4.45 -7.3 6.5 -11.1 8.75 L-11.35 10.5 Q-11.35 12.35 -10.4 13.1 -5.25 15.65 0.05 13.95 3.5 12.9 4.8 10.65 5.2 9.15 6.45 8.0 9.3 3.6 6.75 1.55" fill="#52a0ff" fill-rule="evenodd" stroke="none"/>
      <path d="M7.6 4.2 L7.65 3.05 Q7.5 4.95 5.3 6.85 4.6 7.35 4.2 8.9 L2.5 11.15 Q-1.75 13.7 -7.45 12.55 -11.5 11.55 -11.0 8.85 -12.4 12.45 -7.3 13.1 -4.65 13.75 -1.4 13.15 L1.3 12.45 Q3.15 11.6 4.1 10.2 L5.75 7.1 Q7.3 5.75 7.6 4.2" fill="#004aa3" fill-rule="evenodd" stroke="none"/>
      <path d="M6.75 1.55 Q5.3 0.5 -2.8 3.8 L-10.45 7.2 -10.45 7.25 Q-13.05 11.45 -7.5 12.5 -1.95 13.5 1.25 11.75 3.05 11.25 4.25 8.95 4.55 7.35 5.3 6.9 6.35 6.2 7.0 5.05 8.45 2.9 6.75 1.55" fill="#7dd1ff" fill-rule="evenodd" stroke="none"/>
      <path d="M0.3 -3.55 L-2.3 -3.25 Q-5.05 -2.5 -6.2 -0.3 L-7.45 2.75 -10.3 6.75 Q-11.25 8.35 -10.9 9.25 -9.8 11.4 -6.5 11.25 -4.4 12.9 -1.2 11.65 2.55 11.45 4.4 6.75 L5.9 5.4 Q8.2 2.6 5.6 -1.8 L4.7 -2.55 Q3.2 -3.35 0.3 -3.55" fill="#000000" fill-rule="evenodd" stroke="none"/>
      <path d="M-2.85 -2.25 Q-4.8 -1.55 -5.9 0.65 L-6.5 2.55 Q-6.85 3.75 -7.7 4.65 L-9.8 7.4 Q-10.75 10.5 -8.05 10.45 -6.75 10.7 -5.85 9.9 -5.25 12.55 0.05 10.45 2.85 9.2 3.5 6.65 5.8 4.85 6.35 2.55 6.35 0.95 5.4 -0.4 3.5 -3.25 -1.1 -2.5 L-2.85 -2.25" fill="#c98036" fill-rule="evenodd" stroke="none"/>
      <path d="M-6.0 10.35 L-5.5 10.7 Q-6.25 10.05 -5.9 7.15 -7.1 8.45 -6.0 10.35" fill="#000000" fill-rule="evenodd" stroke="none"/>
      <path d="M-6.25 9.35 L-6.0 7.5 -6.6 7.05 Q-7.3 7.4 -6.25 9.35" fill="#000000" fill-rule="evenodd" stroke="none"/>
      <path d="M5.15 -0.7 Q4.35 -1.9 2.5 -2.45 L0.75 -2.75 Q-2.65 -2.85 -4.3 -1.5 -6.55 0.5 5.15 -0.7" fill="#965112" fill-rule="evenodd" stroke="none"/>
      <path d="M5.85 0.85 L4.65 3.2 Q3.3 5.55 2.5 5.75 L2.2 5.9 0.15 8.15 Q-0.25 9.35 0.05 8.35 -2.55 9.85 -4.2 8.7 -4.65 10.7 -3.7 10.85 1.1 11.65 3.5 6.5 L6.0 3.25 Q6.6 1.75 5.85 0.85" fill="#965112" fill-rule="evenodd" stroke="none"/>
      <path d="M1.7 8.0 L4.55 4.15 3.6 4.75 Q0.35 6.2 0.15 8.15 L-0.6 9.15 0.1 9.15 1.7 8.0" fill="#965112" fill-rule="evenodd" stroke="none"/>
      <path d="M-6.75 8.15 Q-8.6 10.05 -10.0 9.35 -9.3 11.35 -6.2 10.1 L-6.75 8.15" fill="#965112" fill-rule="evenodd" stroke="none"/>
      <path d="M2.45 10.1 Q3.4 9.65 3.9 8.7 L4.1 7.8 Q1.05 4.15 -2.4 4.1 -4.15 4.1 -5.25 4.75 -6.75 3.85 -8.2 3.9 L-9.3 4.1 Q-10.5 4.25 -10.05 6.35 -9.15 5.85 -7.5 6.8 -6.7 7.25 -6.0 7.8 -4.7 6.05 -1.0 7.85 L2.45 10.1" fill="#004aa3" fill-rule="evenodd" stroke="none"/>
      <path d="M2.45 9.8 Q3.35 9.35 3.6 8.6 L3.7 7.85 Q0.8 4.65 -2.55 4.55 -4.2 4.5 -5.35 5.1 -5.95 4.45 -7.45 4.35 L-8.85 4.35 Q-9.6 4.75 -9.8 6.0 -8.95 5.6 -7.35 6.35 L-5.95 7.25 Q-3.8 5.7 -0.5 7.55 1.2 8.55 2.45 9.8" fill="#7dd1ff" fill-rule="evenodd" stroke="none"/>
      <path d="M-10.05 6.15 Q-10.15 6.65 -9.8 6.65 L-9.2 6.2 -10.05 6.15" fill="#004aa3" fill-rule="evenodd" stroke="none"/>
      <path d="M3.65 8.0 L2.15 6.35 -2.55 6.5 2.45 9.55 Q3.1 9.45 3.45 8.7 L3.65 8.0" fill="#52a0ff" fill-rule="evenodd" stroke="none"/>
      <path d="M-5.35 5.05 Q-6.75 6.45 -7.1 5.9 L-8.7 5.95 -7.6 6.35 -5.95 7.2 -5.35 5.05" fill="#52a0ff" fill-rule="evenodd" stroke="none"/>
      <path d="M-6.5 5.1 L-7.0 4.75 Q-7.65 4.4 -8.55 4.5 L-9.4 5.05 -9.5 5.35 Q-9.25 5.05 -8.7 4.85 -7.75 4.45 -6.5 5.1" fill="#ffffff" fill-rule="evenodd" stroke="none"/>
      <path d="M-5.05 5.55 Q-3.8 5.0 -2.35 5.1 L-1.1 5.3 -1.5 4.75 Q-3.15 4.4 -5.05 5.55" fill="#ffffff" fill-rule="evenodd" stroke="none"/>
    </g>
  </defs>
</svg>
